;  Created by Sandify
;  https://sandify.org
;  Version: 0.2.4
;
;  Machine type: Polar
;    Max radius (mm): 250
;    Start point: center
;    End point: center
;  Content type: shape
;  Layer:
;    Shape: Clover
;    Name: polygon
;    Large circle radius: 4
;    Small circle radius: 1
;    Visible: true
;    X offset: 4
;    Y offset: 1
;    Number of loops: 8
;    When transforming shape: smear
;    Spin: false
;    Grow: true
;      Scale (+/-): 100
;      Scale by: constant
;    Track: false
;  Path reversed: false
;
; File name: 'sandify'
;

G01 X250.000 Y250.000
G01 X261.323 Y250.616
G01 X261.425 Y250.615
G01 X261.615 Y250.636
G01 X261.886 Y250.703
G01 X262.226 Y250.842
G01 X262.616 Y251.070
G01 X263.032 Y251.404
G01 X263.448 Y251.852
G01 X263.836 Y252.416
G01 X264.167 Y253.091
G01 X264.414 Y253.866
G01 X264.554 Y254.722
G01 X264.567 Y255.636
G01 X264.441 Y256.580
G01 X264.170 Y257.524
G01 X263.755 Y258.437
G01 X263.204 Y259.288
G01 X262.534 Y260.050
G01 X261.765 Y260.700
G01 X260.925 Y261.221
G01 X260.044 Y261.602
G01 X259.153 Y261.839
G01 X258.283 Y261.938
G01 X257.466 Y261.911
G01 X256.725 Y261.776
G01 X256.081 Y261.557
G01 X255.548 Y261.284
G01 X255.132 Y260.988
G01 X254.831 Y260.699
G01 X254.635 Y260.449
G01 X254.528 Y260.264
G01 X254.486 Y260.165
G01 X254.481 Y260.169
G01 X254.481 Y260.282
G01 X254.455 Y260.504
G01 X254.370 Y260.828
G01 X254.197 Y261.235
G01 X253.913 Y261.704
G01 X253.499 Y262.205
G01 X252.945 Y262.704
G01 X252.249 Y263.167
G01 X251.417 Y263.559
G01 X250.465 Y263.846
G01 X249.415 Y264.001
G01 X248.297 Y264.000
G01 X247.145 Y263.828
G01 X245.996 Y263.478
G01 X244.888 Y262.953
G01 X243.858 Y262.264
G01 X242.939 Y261.430
G01 X242.159 Y260.479
G01 X241.539 Y259.443
G01 X241.091 Y258.360
G01 X240.817 Y257.267
G01 X240.713 Y256.203
G01 X240.762 Y255.205
G01 X240.941 Y254.302
G01 X241.220 Y253.519
G01 X241.565 Y252.872
G01 X241.937 Y252.367
G01 X242.298 Y252.002
G01 X242.613 Y251.766
G01 X242.848 Y251.636
G01 X242.979 Y251.584
G01 X242.986 Y251.577
G01 X242.862 Y251.577
G01 X242.607 Y251.545
G01 X242.231 Y251.443
G01 X241.755 Y251.236
G01 X241.207 Y250.896
G01 X240.622 Y250.402
G01 X240.040 Y249.742
G01 X239.501 Y248.913
G01 X239.049 Y247.925
G01 X238.721 Y246.796
G01 X238.552 Y245.552
G01 X238.567 Y244.230
G01 X238.786 Y242.869
G01 X239.214 Y241.515
G01 X239.848 Y240.212
G01 X240.676 Y239.003
G01 X241.673 Y237.928
G01 X242.807 Y237.018
G01 X244.039 Y236.299
G01 X245.325 Y235.783
G01 X246.619 Y235.474
G01 X247.877 Y235.364
G01 X249.056 Y235.434
G01 X250.120 Y235.657
G01 X251.043 Y235.997
G01 X251.804 Y236.414
G01 X252.398 Y236.861
G01 X252.826 Y237.296
G01 X253.104 Y237.674
G01 X253.257 Y237.960
G01 X253.318 Y238.122
G01 X253.326 Y238.141
G01 X253.327 Y238.006
G01 X253.365 Y237.718
G01 X253.484 Y237.290
G01 X253.725 Y236.746
G01 X254.121 Y236.119
G01 X254.695 Y235.449
G01 X255.462 Y234.783
G01 X256.422 Y234.170
G01 X257.567 Y233.657
G01 X258.874 Y233.289
G01 X260.311 Y233.105
G01 X261.837 Y233.135
G01 X263.406 Y233.399
G01 X264.966 Y233.905
G01 X266.464 Y234.650
G01 X267.852 Y235.616
G01 X269.083 Y236.777
G01 X270.122 Y238.093
G01 X270.941 Y239.521
G01 X271.525 Y241.009
G01 X271.870 Y242.505
G01 X271.986 Y243.957
G01 X271.894 Y245.316
G01 X271.626 Y246.543
G01 X271.225 Y247.605
G01 X270.737 Y248.481
G01 X270.214 Y249.162
G01 X269.707 Y249.654
G01 X269.264 Y249.974
G01 X268.928 Y250.149
G01 X268.647 Y250.232
G01 X268.793 Y250.233
G01 X269.112 Y250.277
G01 X269.591 Y250.414
G01 X270.201 Y250.688
G01 X270.905 Y251.138
G01 X271.656 Y251.789
G01 X272.402 Y252.659
G01 X273.089 Y253.747
G01 X273.661 Y255.043
G01 X274.068 Y256.522
G01 X274.266 Y258.147
G01 X274.222 Y259.871
G01 X273.913 Y261.642
G01 X273.331 Y263.400
G01 X272.480 Y265.088
G01 X271.379 Y266.648
G01 X270.061 Y268.032
G01 X268.567 Y269.196
G01 X266.949 Y270.112
G01 X265.265 Y270.761
G01 X263.574 Y271.140
G01 X261.935 Y271.261
G01 X260.400 Y271.149
G01 X259.016 Y270.839
G01 X257.820 Y270.378
G01 X256.833 Y269.821
G01 X256.065 Y269.225
G01 X255.512 Y268.647
G01 X255.152 Y268.142
G01 X254.955 Y267.757
G01 X254.876 Y267.532
G01 X254.864 Y267.492
G01 X254.863 Y267.649
G01 X254.813 Y268.001
G01 X254.659 Y268.532
G01 X254.351 Y269.210
G01 X253.846 Y269.993
G01 X253.113 Y270.829
G01 X252.138 Y271.658
G01 X250.917 Y272.420
G01 X249.465 Y273.053
G01 X247.809 Y273.500
G01 X245.990 Y273.713
G01 X244.061 Y273.655
G01 X242.083 Y273.300
G01 X240.119 Y272.639
G01 X238.237 Y271.678
G01 X236.497 Y270.439
G01 X234.957 Y268.957
G01 X233.663 Y267.281
G01 X232.648 Y265.467
G01 X231.931 Y263.581
G01 X231.516 Y261.688
G01 X231.389 Y259.854
G01 X231.524 Y258.139
G01 X231.878 Y256.594
G01 X232.399 Y255.258
G01 X233.028 Y254.157
G01 X233.700 Y253.301
G01 X234.351 Y252.683
G01 X234.920 Y252.283
G01 X235.355 Y252.063
G01 X235.612 Y251.974
G01 X235.663 Y251.961
G01 X235.495 Y251.959
G01 X235.109 Y251.904
G01 X234.527 Y251.732
G01 X233.780 Y251.389
G01 X232.918 Y250.829
G01 X231.998 Y250.016
G01 X231.085 Y248.934
G01 X230.249 Y247.582
G01 X229.555 Y245.973
G01 X229.068 Y244.139
G01 X228.840 Y242.127
G01 X228.913 Y239.994
G01 X229.314 Y237.808
G01 X230.053 Y235.639
G01 X231.124 Y233.561
G01 X232.501 Y231.643
G01 X234.147 Y229.946
G01 X236.006 Y228.522
G01 X238.015 Y227.408
G01 X240.103 Y226.624
G01 X242.197 Y226.172
G01 X244.226 Y226.040
G01 X246.122 Y226.196
G01 X247.829 Y226.594
G01 X249.304 Y227.177
G01 X250.519 Y227.877
G01 X251.464 Y228.625
G01 X252.145 Y229.348
G01 X252.587 Y229.982
G01 X252.830 Y230.466
G01 X252.927 Y230.756
G01 X252.942 Y230.818
G01 X252.945 Y230.638
G01 X253.006 Y230.220
G01 X253.195 Y229.585
G01 X253.572 Y228.771
G01 X254.188 Y227.829
G01 X255.081 Y226.825
G01 X256.269 Y225.829
G01 X257.754 Y224.917
G01 X259.519 Y224.163
G01 X261.530 Y223.635
G01 X263.736 Y223.392
G01 X266.073 Y223.480
G01 X268.468 Y223.927
G01 X270.842 Y224.745
G01 X273.115 Y225.925
G01 X275.212 Y227.442
G01 X277.065 Y229.250
G01 X278.618 Y231.292
G01 X279.832 Y233.497
G01 X280.684 Y235.788
G01 X281.171 Y238.083
G01 X281.309 Y240.306
G01 X281.131 Y242.382
G01 X280.689 Y244.251
G01 X280.046 Y245.866
G01 X279.274 Y247.196
G01 X278.451 Y248.229
G01 X277.654 Y248.974
G01 X276.956 Y249.457
G01 X276.422 Y249.722
G01 X275.970 Y249.849
G01 X276.160 Y249.852
G01 X276.610 Y249.919
G01 X277.295 Y250.124
G01 X278.176 Y250.534
G01 X279.194 Y251.205
G01 X280.280 Y252.175
G01 X281.357 Y253.466
G01 X282.341 Y255.079
G01 X283.154 Y256.996
G01 X283.721 Y259.179
G01 X283.978 Y261.572
G01 X283.877 Y264.107
G01 X283.385 Y266.703
G01 X282.491 Y269.276
G01 X281.204 Y271.739
G01 X279.554 Y274.009
G01 X277.587 Y276.013
G01 X275.368 Y277.692
G01 X272.974 Y279.002
G01 X270.487 Y279.920
G01 X267.996 Y280.441
G01 X265.586 Y280.585
G01 X263.334 Y280.386
G01 X261.308 Y279.902
G01 X259.558 Y279.199
G01 X258.118 Y278.358
G01 X256.999 Y277.461
G01 X256.193 Y276.594
G01 X255.670 Y275.834
G01 X255.382 Y275.251
G01 X255.267 Y274.899
G01 X255.248 Y274.815
G01 X255.245 Y275.016
G01 X255.172 Y275.499
G01 X254.949 Y276.237
G01 X254.504 Y277.185
G01 X253.778 Y278.283
G01 X252.728 Y279.453
G01 X251.331 Y280.613
G01 X249.585 Y281.673
G01 X247.512 Y282.547
G01 X245.152 Y283.154
G01 X242.565 Y283.426
G01 X239.826 Y283.309
G01 X237.021 Y282.771
G01 X234.243 Y281.799
G01 X231.586 Y280.403
G01 X229.137 Y278.613
G01 X226.976 Y276.483
G01 X225.167 Y274.082
G01 X223.757 Y271.491
G01 X222.772 Y268.803
G01 X222.215 Y266.110
G01 X222.066 Y263.505
G01 X222.286 Y261.073
G01 X222.815 Y258.885
G01 X223.578 Y256.996
G01 X224.491 Y255.442
G01 X225.463 Y254.234
G01 X226.404 Y253.364
G01 X227.228 Y252.800
G01 X227.861 Y252.490
G01 X228.245 Y252.365
G01 X228.340 Y252.345
G01 X228.127 Y252.341
G01 X227.612 Y252.262
G01 X226.822 Y252.022
G01 X225.805 Y251.543
G01 X224.629 Y250.761
G01 X223.374 Y249.631
G01 X222.131 Y248.127
G01 X220.996 Y246.250
G01 X220.061 Y244.020
G01 X219.414 Y241.483
G01 X219.127 Y238.702
G01 X219.258 Y235.759
G01 X219.842 Y232.746
G01 X220.893 Y229.763
G01 X222.399 Y226.910
G01 X224.327 Y224.282
G01 X226.620 Y221.965
G01 X229.204 Y220.026
G01 X231.991 Y218.517
G01 X234.882 Y217.464
G01 X237.776 Y216.871
G01 X240.575 Y216.717
G01 X243.187 Y216.958
G01 X245.537 Y217.531
G01 X247.565 Y218.356
G01 X249.234 Y219.340
G01 X250.531 Y220.388
G01 X251.464 Y221.401
G01 X252.070 Y222.289
G01 X252.403 Y222.973
G01 X252.537 Y223.389
G01 X252.558 Y223.494
G01 X252.563 Y223.271
G01 X252.647 Y222.723
G01 X252.905 Y221.881
G01 X253.418 Y220.796
G01 X254.256 Y219.540
G01 X255.467 Y218.201
G01 X257.076 Y216.875
G01 X259.086 Y215.664
G01 X261.472 Y214.669
G01 X264.187 Y213.981
G01 X267.161 Y213.680
G01 X270.309 Y213.825
G01 X273.530 Y214.455
G01 X276.718 Y215.585
G01 X279.766 Y217.201
G01 X282.572 Y219.267
G01 X285.046 Y221.724
G01 X287.114 Y224.490
G01 X288.723 Y227.473
G01 X289.843 Y230.566
G01 X290.472 Y233.662
G01 X290.632 Y236.655
G01 X290.369 Y239.448
G01 X289.752 Y241.960
G01 X288.867 Y244.127
G01 X287.811 Y245.911
G01 X286.688 Y247.295
G01 X285.601 Y248.293
G01 X284.649 Y248.940
G01 X283.915 Y249.295
G01 X283.293 Y249.465
G01 X283.527 Y249.470
G01 X284.107 Y249.560
G01 X285.000 Y249.834
G01 X286.151 Y250.381
G01 X287.483 Y251.272
G01 X288.904 Y252.561
G01 X290.311 Y254.273
G01 X291.594 Y256.411
G01 X292.648 Y258.948
G01 X293.375 Y261.835
G01 X293.691 Y264.997
G01 X293.532 Y268.343
G01 X292.857 Y271.765
G01 X291.651 Y275.152
G01 X289.929 Y278.389
G01 X287.728 Y281.369
G01 X285.114 Y283.995
G01 X282.170 Y286.188
G01 X278.998 Y287.893
G01 X275.709 Y289.079
G01 X272.418 Y289.743
G01 X269.237 Y289.908
G01 X266.268 Y289.624
G01 X263.600 Y288.965
G01 X261.297 Y288.020
G01 X259.403 Y286.894
G01 X257.933 Y285.698
G01 X256.873 Y284.541
G01 X256.187 Y283.527
G01 X255.809 Y282.745
G01 X255.657 Y282.266
G01 X255.632 Y282.138
G01 X255.626 Y282.384
G01 X255.530 Y282.996
G01 X255.239 Y283.941
G01 X254.658 Y285.160
G01 X253.711 Y286.572
G01 X252.342 Y288.078
G01 X250.524 Y289.567
G01 X248.254 Y290.926
G01 X245.560 Y292.040
G01 X242.496 Y292.807
G01 X239.140 Y293.138
G01 X235.590 Y292.964
G01 X231.959 Y292.243
G01 X228.367 Y290.960
G01 X224.935 Y289.127
G01 X221.776 Y286.788
G01 X218.994 Y284.010
G01 X216.671 Y280.883
G01 X214.867 Y277.516
G01 X213.613 Y274.024
G01 X212.914 Y270.532
G01 X212.743 Y267.156
G01 X213.048 Y264.008
G01 X213.752 Y261.177
G01 X214.757 Y258.735
G01 X215.955 Y256.727
G01 X217.226 Y255.168
G01 X218.456 Y254.045
G01 X219.535 Y253.317
G01 X220.367 Y252.917
G01 X220.878 Y252.755
G01 X221.016 Y252.729
G01 X220.760 Y252.723
G01 X220.115 Y252.621
G01 X219.118 Y252.312
G01 X217.830 Y251.697
G01 X216.340 Y250.694
G01 X214.749 Y249.245
G01 X213.177 Y247.320
G01 X211.743 Y244.918
G01 X210.567 Y242.068
G01 X209.760 Y238.826
G01 X209.415 Y235.277
G01 X209.603 Y231.523
G01 X210.370 Y227.684
G01 X211.732 Y223.887
G01 X213.675 Y220.259
G01 X216.152 Y216.922
G01 X219.094 Y213.983
G01 X222.403 Y211.530
G01 X225.967 Y209.626
G01 X229.660 Y208.305
G01 X233.354 Y207.570
G01 X236.924 Y207.394
G01 X240.253 Y207.721
G01 X243.246 Y208.468
G01 X245.827 Y209.535
G01 X247.949 Y210.804
G01 X249.597 Y212.151
G01 X250.783 Y213.454
G01 X251.553 Y214.597
G01 X251.976 Y215.479
G01 X252.146 Y216.022
G01 X252.175 Y216.171
G01 X252.181 Y215.904
G01 X252.289 Y215.226
G01 X252.615 Y214.176
G01 X253.265 Y212.821
G01 X254.323 Y211.251
G01 X255.852 Y209.576
G01 X257.883 Y207.920
G01 X260.417 Y206.411
G01 X263.424 Y205.175
G01 X266.843 Y204.328
G01 X270.586 Y203.968
G01 X274.544 Y204.170
G01 X278.591 Y204.984
G01 X282.594 Y206.424
G01 X286.417 Y208.476
G01 X289.933 Y211.093
G01 X293.028 Y214.197
G01 X295.610 Y217.689
G01 X297.614 Y221.449
G01 X299.003 Y225.344
G01 X299.773 Y229.240
G01 X299.955 Y233.004
G01 X299.607 Y236.514
G01 X298.815 Y239.668
G01 X297.688 Y242.389
G01 X296.347 Y244.626
G01 X294.924 Y246.362
G01 X293.548 Y247.612
G01 X292.341 Y248.422
G01 X291.409 Y248.868
G01 X290.616 Y249.081
G01 X290.895 Y249.088
G01 X291.604 Y249.201
G01 X292.704 Y249.544
G01 X294.126 Y250.227
G01 X295.772 Y251.340
G01 X297.529 Y252.946
G01 X299.265 Y255.080
G01 X300.847 Y257.742
G01 X302.142 Y260.901
G01 X303.029 Y264.492
G01 X303.403 Y268.422
G01 X303.186 Y272.578
G01 X302.328 Y276.827
G01 X300.812 Y281.028
G01 X298.653 Y285.040
G01 X295.903 Y288.729
G01 X292.640 Y291.976
G01 X288.971 Y294.684
G01 X285.022 Y296.784
G01 X280.930 Y298.238
G01 X276.839 Y299.044
G01 X272.888 Y299.231
G01 X269.202 Y298.862
G01 X265.891 Y298.028
G01 X263.036 Y296.841
G01 X260.688 Y295.431
G01 X258.866 Y293.935
G01 X257.554 Y292.488
G01 X256.704 Y291.219
G01 X256.236 Y290.238
G01 X256.047 Y289.633
G01 X256.016 Y289.462
G01 X256.008 Y289.751
G01 X255.889 Y290.493
G01 X255.529 Y291.645
G01 X254.812 Y293.135
G01 X253.643 Y294.861
G01 X251.957 Y296.702
G01 X249.716 Y298.521
G01 X246.922 Y300.179
G01 X243.607 Y301.534
G01 X239.839 Y302.461
G01 X235.715 Y302.850
G01 X231.355 Y302.619
G01 X226.898 Y301.715
G01 X222.491 Y300.120
G01 X218.284 Y297.852
G01 X214.416 Y294.963
G01 X211.013 Y291.537
G01 X208.175 Y287.685
G01 X205.976 Y283.540
G01 X204.454 Y279.246
G01 X203.613 Y274.953
G01 X203.420 Y270.808
G01 X203.810 Y266.942
G01 X204.689 Y263.469
G01 X205.936 Y260.474
G01 X207.418 Y258.012
G01 X208.990 Y256.101
G01 X210.509 Y254.726
G01 X211.843 Y253.834
G01 X212.874 Y253.344
G01 X213.511 Y253.146
G01 X213.693 Y253.112
G01 X213.393 Y253.104
G01 X212.618 Y252.979
G01 X211.413 Y252.602
G01 X209.856 Y251.850
G01 X208.050 Y250.626
G01 X206.125 Y248.859
G01 X204.222 Y246.513
G01 X202.490 Y243.586
G01 X201.073 Y240.115
G01 X200.106 Y236.170
G01 X199.702 Y231.852
G01 X199.948 Y227.287
G01 X200.899 Y222.622
G01 X202.572 Y218.011
G01 X204.950 Y213.608
G01 X207.978 Y209.561
G01 X211.567 Y206.001
G01 X215.601 Y203.034
G01 X219.943 Y200.736
G01 X224.438 Y199.146
G01 X228.933 Y198.269
G01 X233.273 Y198.071
G01 X237.319 Y198.483
G01 X240.954 Y199.405
G01 X244.088 Y200.714
G01 X246.665 Y202.267
G01 X248.664 Y203.914
G01 X250.103 Y205.507
G01 X251.036 Y206.904
G01 X251.549 Y207.986
G01 X251.756 Y208.655
G01 X251.791 Y208.848
G01 X251.800 Y208.536
G01 X251.930 Y207.729
G01 X252.325 Y206.472
G01 X253.111 Y204.846
G01 X254.391 Y202.962
G01 X256.238 Y200.952
G01 X258.690 Y198.966
G01 X261.749 Y197.159
G01 X265.377 Y195.681
G01 X269.500 Y194.674
G01 X274.011 Y194.255
G01 X278.780 Y194.516
G01 X283.653 Y195.512
G01 X288.470 Y197.264
G01 X293.068 Y199.752
G01 X297.293 Y202.918
G01 X301.010 Y206.671
G01 X304.106 Y210.888
G01 X306.505 Y215.425
G01 X308.162 Y220.123
G01 X309.075 Y224.819
G01 X309.278 Y229.353
G01 X308.845 Y233.580
G01 X307.878 Y237.377
G01 X306.509 Y240.650
G01 X304.884 Y243.341
G01 X303.161 Y245.428
G01 X301.496 Y246.931
G01 X300.034 Y247.905
G01 X298.903 Y248.441
G01 X297.940 Y248.697
G01 X298.262 Y248.706
G01 X299.101 Y248.843
G01 X300.409 Y249.254
G01 X302.100 Y250.073
G01 X304.062 Y251.407
G01 X306.153 Y253.332
G01 X308.220 Y255.887
G01 X310.100 Y259.074
G01 X311.636 Y262.853
G01 X312.682 Y267.148
G01 X313.116 Y271.848
G01 X312.841 Y276.814
G01 X311.800 Y281.889
G01 X309.972 Y286.904
G01 X307.378 Y291.691
G01 X304.077 Y296.090
G01 X300.167 Y299.958
G01 X295.773 Y303.180
G01 X291.046 Y305.675
G01 X286.152 Y307.398
G01 X281.261 Y308.345
G01 X276.539 Y308.554
G01 X272.137 Y308.100
G01 X268.183 Y307.090
G01 X264.774 Y305.662
G01 X261.973 Y303.968
G01 X259.800 Y302.172
G01 X258.235 Y300.436
G01 X257.221 Y298.912
G01 X256.663 Y297.732
G01 X256.438 Y297.000
G01 X256.399 Y296.785
G01 X256.390 Y297.118
G01 X256.248 Y297.990
G01 X255.819 Y299.350
G01 X254.965 Y301.110
G01 X253.576 Y303.150
G01 X251.571 Y305.326
G01 X248.909 Y307.476
G01 X245.590 Y309.431
G01 X241.655 Y311.028
G01 X237.183 Y312.115
G01 X232.289 Y312.563
G01 X227.119 Y312.274
G01 X221.836 Y311.187
G01 X216.615 Y309.280
G01 X211.633 Y306.576
G01 X207.055 Y303.137
G01 X203.031 Y299.063
G01 X199.679 Y294.486
G01 X197.085 Y289.564
G01 X195.295 Y284.467
G01 X194.311 Y279.375
G01 X194.097 Y274.459
G01 X194.573 Y269.876
G01 X195.626 Y265.760
G01 X197.115 Y262.213
G01 X198.881 Y259.297
G01 X200.753 Y257.035
G01 X202.562 Y255.407
G01 X204.150 Y254.351
G01 X205.380 Y253.771
G01 X206.144 Y253.536
G01 X206.370 Y253.496
G01 X206.025 Y253.486
G01 X205.121 Y253.338
G01 X203.709 Y252.892
G01 X201.881 Y252.004
G01 X199.761 Y250.559
G01 X197.501 Y248.474
G01 X195.268 Y245.706
G01 X193.237 Y242.255
G01 X191.580 Y238.163
G01 X190.453 Y233.513
G01 X189.990 Y228.426
G01 X190.293 Y223.052
G01 X191.427 Y217.561
G01 X193.411 Y212.134
G01 X196.225 Y206.957
G01 X199.803 Y202.201
G01 X204.041 Y198.020
G01 X208.800 Y194.538
G01 X213.918 Y191.845
G01 X219.217 Y189.987
G01 X224.511 Y188.968
G01 X229.622 Y188.748
G01 X234.385 Y189.245
G01 X238.662 Y190.342
G01 X242.349 Y191.893
G01 X245.380 Y193.730
G01 X247.730 Y195.678
G01 X249.422 Y197.559
G01 X250.518 Y199.212
G01 X251.122 Y200.492
G01 X251.365 Y201.288
G01 X251.407 Y201.525
G01 X251.418 Y201.169
G01 X251.572 Y200.232
G01 X252.035 Y198.768
G01 X252.957 Y196.871
G01 X254.458 Y194.673
G01 X256.623 Y192.328
G01 X259.497 Y190.012
G01 X263.081 Y187.906
G01 X267.329 Y186.187
G01 X272.156 Y185.020
G01 X277.437 Y184.543
G01 X283.015 Y184.861
G01 X288.715 Y186.040
G01 X294.346 Y188.103
G01 X299.719 Y191.027
G01 X304.654 Y194.743
G01 X308.991 Y199.144
G01 X312.602 Y204.086
G01 X315.395 Y209.401
G01 X317.321 Y214.901
G01 X318.376 Y220.397
G01 X318.601 Y225.702
G01 X318.083 Y230.645
G01 X316.941 Y235.085
G01 X315.330 Y238.911
G01 X313.421 Y242.056
G01 X311.398 Y244.495
G01 X309.443 Y246.250
G01 X307.726 Y247.388
G01 X306.396 Y248.014
G01 X305.263 Y248.313
G01 X305.629 Y248.325
G01 X306.598 Y248.484
G01 X308.113 Y248.965
G01 X310.075 Y249.920
G01 X312.351 Y251.475
G01 X314.777 Y253.717
G01 X317.174 Y256.694
G01 X319.353 Y260.406
G01 X321.130 Y264.806
G01 X322.336 Y269.805
G01 X322.828 Y275.273
G01 X322.496 Y281.049
G01 X321.272 Y286.950
G01 X319.133 Y292.780
G01 X316.103 Y298.342
G01 X312.252 Y303.450
G01 X307.693 Y307.939
G01 X302.574 Y311.676
G01 X297.070 Y314.565
G01 X291.373 Y316.557
G01 X285.682 Y317.646
G01 X280.190 Y317.877
G01 X275.071 Y317.337
G01 X270.474 Y316.153
G01 X266.513 Y314.483
G01 X263.258 Y312.505
G01 X260.733 Y310.408
G01 X258.916 Y308.383
G01 X257.738 Y306.604
G01 X257.090 Y305.225
G01 X256.828 Y304.367
G01 X256.783 Y304.108
G01 X256.772 Y304.486
G01 X256.606 Y305.487
G01 X256.108 Y307.054
G01 X255.119 Y309.085
G01 X253.508 Y311.439
G01 X251.185 Y313.950
G01 X248.102 Y316.430
G01 X244.259 Y318.684
G01 X239.702 Y320.522
G01 X234.526 Y321.769
G01 X228.864 Y322.275
G01 X222.884 Y321.929
G01 X216.774 Y320.658
G01 X210.739 Y318.441
G01 X204.982 Y315.301
G01 X199.695 Y311.312
G01 X195.049 Y306.590
G01 X191.183 Y301.288
G01 X188.194 Y295.588
G01 X186.135 Y289.689
G01 X185.010 Y283.796
G01 X184.774 Y278.110
G01 X185.335 Y272.810
G01 X186.563 Y268.052
G01 X188.295 Y263.951
G01 X190.344 Y260.582
G01 X192.516 Y257.968
G01 X194.615 Y256.087
G01 X196.458 Y254.868
G01 X197.887 Y254.198
G01 X198.777 Y253.927
G01 X199.047 Y253.880
G01 X198.658 Y253.868
G01 X197.624 Y253.697
G01 X196.004 Y253.181
G01 X193.906 Y252.158
G01 X191.472 Y250.491
G01 X188.877 Y248.088
G01 X186.314 Y244.899
G01 X183.984 Y240.923
G01 X182.086 Y236.210
G01 X180.799 Y230.857
G01 X180.278 Y225.001
G01 X180.639 Y218.816
G01 X181.955 Y212.499
G01 X184.251 Y206.258
G01 X187.501 Y200.306
G01 X191.628 Y194.840
G01 X196.514 Y190.038
G01 X201.999 Y186.042
G01 X207.894 Y182.954
G01 X213.995 Y180.828
G01 X220.089 Y179.667
G01 X225.970 Y179.425
G01 X231.451 Y180.007
G01 X236.371 Y181.279
G01 X240.611 Y183.072
G01 X244.095 Y185.193
G01 X246.797 Y187.441
G01 X248.741 Y189.612
G01 X250.001 Y191.519
G01 X250.695 Y192.998
G01 X250.975 Y193.921
G01 X251.023 Y194.201
G01 X251.036 Y193.802
G01 X251.213 Y192.735
G01 X251.746 Y191.063
G01 X252.804 Y188.896
G01 X254.526 Y186.383
G01 X257.009 Y183.704
G01 X260.305 Y181.057
G01 X264.413 Y178.653
G01 X269.282 Y176.694
G01 X274.813 Y175.366
G01 X280.862 Y174.830
G01 X287.251 Y175.206
G01 X293.777 Y176.568
G01 X300.222 Y178.943
G01 X306.370 Y182.302
G01 X312.014 Y186.569
G01 X316.973 Y191.618
G01 X321.098 Y197.285
G01 X324.286 Y203.376
G01 X326.480 Y209.680
G01 X327.677 Y215.975
G01 X327.925 Y222.051
G01 X327.320 Y227.711
G01 X326.004 Y232.793
G01 X324.151 Y237.173
G01 X321.958 Y240.771
G01 X319.635 Y243.561
G01 X317.390 Y245.569
G01 X315.419 Y246.871
G01 X313.890 Y247.587
G01 X312.586 Y247.930
G01 X312.997 Y247.943
G01 X314.095 Y248.126
G01 X315.817 Y248.675
G01 X318.050 Y249.766
G01 X320.640 Y251.542
G01 X323.401 Y254.103
G01 X326.128 Y257.502
G01 X328.606 Y261.738
G01 X330.624 Y266.758
G01 X331.990 Y272.461
G01 X332.540 Y278.698
G01 X332.151 Y285.285
G01 X330.744 Y292.012
G01 X328.293 Y298.657
G01 X324.827 Y304.993
G01 X320.427 Y310.811
G01 X315.220 Y315.921
G01 X309.375 Y320.172
G01 X303.094 Y323.456
G01 X296.595 Y325.716
G01 X290.104 Y326.947
G01 X283.841 Y327.200
G01 X278.005 Y326.575
G01 X272.766 Y325.216
G01 X268.252 Y323.304
G01 X264.543 Y321.041
G01 X261.667 Y318.645
G01 X259.597 Y316.330
G01 X258.255 Y314.297
G01 X257.517 Y312.719
G01 X257.219 Y311.733
G01 X257.167 Y311.432
G01 X257.153 Y311.853
G01 X256.965 Y312.985
G01 X256.398 Y314.759
G01 X255.272 Y317.060
G01 X253.441 Y319.729
G01 X250.800 Y322.575
G01 X247.295 Y325.384
G01 X242.927 Y327.937
G01 X237.750 Y330.016
G01 X231.870 Y331.422
G01 X225.439 Y331.988
G01 X218.648 Y331.583
G01 X211.712 Y330.130
G01 X204.863 Y327.601
G01 X198.331 Y324.026
G01 X192.335 Y319.486
G01 X187.068 Y314.116
G01 X182.687 Y308.089
G01 X179.304 Y301.612
G01 X176.976 Y294.911
G01 X175.709 Y288.218
G01 X175.451 Y281.761
G01 X176.097 Y275.744
G01 X177.500 Y270.343
G01 X179.474 Y265.690
G01 X181.808 Y261.867
G01 X184.279 Y258.902
G01 X186.667 Y256.768
G01 X188.765 Y255.386
G01 X190.393 Y254.625
G01 X191.410 Y254.317
G01 X191.723 Y254.264
G01 X191.291 Y254.250
G01 X190.126 Y254.055
G01 X188.300 Y253.471
G01 X185.931 Y252.311
G01 X183.183 Y250.424
G01 X180.252 Y247.703
G01 X177.359 Y244.092
G01 X174.731 Y239.591
G01 X172.592 Y234.258
G01 X171.145 Y228.200
G01 X170.565 Y221.576
G01 X170.984 Y214.581
G01 X172.483 Y207.437
G01 X175.091 Y200.382
G01 X178.776 Y193.655
G01 X183.454 Y187.480
G01 X188.987 Y182.057
G01 X195.197 Y177.546
G01 X201.870 Y174.063
G01 X208.774 Y171.668
G01 X215.668 Y170.365
G01 X222.319 Y170.101
G01 X228.516 Y170.770
G01 X234.079 Y172.216
G01 X238.872 Y174.251
G01 X242.810 Y176.657
G01 X245.863 Y179.204
G01 X248.060 Y181.665
G01 X249.484 Y183.827
G01 X250.268 Y185.505
G01 X250.585 Y186.554
G01 X250.640 Y186.878
G01 X250.654 Y186.434
G01 X250.854 Y185.237
G01 X251.456 Y183.359
G01 X252.650 Y180.922
G01 X254.593 Y178.094
G01 X257.395 Y175.079
G01 X261.112 Y172.103
G01 X265.744 Y169.400
G01 X271.234 Y167.200
G01 X277.469 Y165.713
G01 X284.287 Y165.118
G01 X291.486 Y165.551
G01 X298.838 Y167.097
G01 X306.098 Y169.783
G01 X313.021 Y173.578
G01 X319.375 Y178.394
G01 X324.954 Y184.091
G01 X329.594 Y190.483
G01 X333.177 Y197.352
G01 X335.639 Y204.458
G01 X336.978 Y211.554
G01 X337.248 Y218.400
G01 X336.558 Y224.777
G01 X335.067 Y230.502
G01 X332.972 Y235.434
G01 X330.494 Y239.486
G01 X327.871 Y242.628
G01 X325.337 Y244.889
G01 X323.112 Y246.354
G01 X321.383 Y247.160
G01 X250.000 Y250.000

